build/finance/CreditCardSolid.svg

<svg xmlns="http://www.w3.org/2000/svg" fill="none" viewBox="0 0 24 24" focusable="false"><path d="M0 0H24V24H0z"/><path fill="#74767B" fill-rule="evenodd" d="M3.7 8.28958C3.3134 8.28958 2.97545 7.97093 3.02807 7.58793C3.22889 6.12605 4.48294 5 6 5L18 5C18.1036 5 18.2059 5.00525 18.3067 5.01549C19.706 5.15759 20.821 6.26134 20.9804 7.65543C21.0203 8.00377 20.7158 8.28958 20.3652 8.28958L3.7 8.28958ZM6 19C4.34314 19 3 17.6569 3 16L3 10.2896C3 9.90298 3.3134 9.58958 3.7 9.58958L20.3 9.58957C20.6866 9.58957 21 9.90298 21 10.2896L21 16C21 17.6569 19.6569 19 18 19L6 19ZM13.6498 11.3946C13.4774 11.3946 13.312 11.4631 13.1901 11.585C13.0682 11.7069 12.9998 11.8722 12.9998 12.0446L12.9998 16.5102C12.9998 16.8692 13.2908 17.1602 13.6498 17.1602C14.0088 17.1602 14.2998 16.8692 14.2998 16.5102L14.2998 15.7252L15.2139 15.7252C16.4098 15.7252 17.3793 14.7558 17.3793 13.5599C17.3793 12.364 16.4098 11.3946 15.2139 11.3946L13.6498 11.3946ZM8.42972 14.9332L8.87341 14.9332C8.88724 14.9543 8.90243 14.9748 8.919 14.9945L10.5439 16.9336C10.7744 17.2088 11.1844 17.2449 11.4596 17.0144C11.7347 16.7838 11.7709 16.3738 11.5403 16.0987L10.0473 14.3169L11.5966 12.4679C11.8272 12.1928 11.7911 11.7828 11.5159 11.5522C11.2408 11.3217 10.8308 11.3578 10.6002 11.633L8.97535 13.5721C8.95881 13.5918 8.94365 13.6122 8.92984 13.6332L8.42972 13.6332L8.42972 12.0504C8.42972 11.6915 8.1387 11.4004 7.77972 11.4004C7.42073 11.4004 7.12971 11.6915 7.12971 12.0504L7.12971 16.5161C7.12971 16.8751 7.42073 17.1661 7.77972 17.1661C8.1387 17.1661 8.42972 16.8751 8.42972 16.5161L8.42972 14.9332ZM14.2998 14.4252L15.2139 14.4252C15.6918 14.4252 16.0793 14.0378 16.0793 13.5599C16.0793 13.082 15.6918 12.6946 15.2139 12.6946L14.2998 12.6946L14.2998 14.4252Z"/></svg>

<svg xmlns="http://www.w3.org/2000/svg" fill="none" viewBox="0 0 24 24" focusable="false"><path fill="#74767B" fill-rule="evenodd" d="M3.02 7.58c-.05.39.29.7.68.7h16.66c.35 0 .66-.28.62-.63a3.01 3.01 0 0 0-2.68-2.64C18.2 5 18.1 5 18 5H6a3 3 0 0 0-2.98 2.58M6 19c-1.66 0-3-1.35-3-3v-5.72c0-.38.31-.7.7-.7h16.59c.39 0 .71.32.71.7V16c0 1.65-1.35 3-3 3zm7.64-7.61c-.17 0-.33.07-.45.19-.13.12-.2.29-.2.46v4.47c0 .35.3.65.65.65.36 0 .65-.3.65-.65v-.79h.92a2.166 2.166 0 0 0 0-4.33zm-5.22 3.54h.45c.01.02.03.04.04.06l1.63 1.94c.23.27.64.31.91.08.28-.23.32-.64.09-.92l-1.5-1.78 1.55-1.85a.64.64 0 0 0-.08-.91.64.64 0 0 0-.91.08l-1.63 1.94c-.02.02-.03.04-.05.06h-.5v-1.58c0-.36-.29-.65-.65-.65-.35 0-.65.29-.65.65v4.46c0 .36.3.65.65.65.36 0 .65-.29.65-.65zm5.87-.51h.92c.48 0 .86-.39.86-.87a.86.86 0 0 0-.86-.86h-.92z"/></svg>
